X: 10942
T: Drummond Castle
R: jig
M: 6/8
K: Aminor
|:ABA a2 (a|{b}a)ge ~g3|~c3 edc|Bdg dBG|
(ABA) ~a3|a(ge) g3|ege deg|1 edB A3:|2 edB A2 B||
|:~c3 cec|~d3 ded|~c3 edc|Bdg dBG|
~c3 edc|deg a2 (a|{b}a)ge deg|1 edB A2 B:|2 edB A3||

